X: 18564
T: I Looked East And I Looked West
R: polka
M: 2/4
K: Gmajor
|:D|GB B/c/B/A/|F/G/A AD|G2 A/B/c|de/d/ cA|
GB B/A/G|FA AB/c/|de/d/ cA|G2 G:|
|:d|ga/g/ fe|fA A2|B/c/d ef|ga/g/ fe|
dg g/f/e|fA- A>B|cA FA|G2 G:|

